X:3935
T:David Adam's
R:Reel
S:Fisher Street
H:
N:
D:Fisher Street: Out in The Night
Z:Adrian Scahill
M:4/4
L:1/8
K:A
A2cA GABc|dcBA GEFG|A2cA Bcdf|ecdB cAaA|\
A2cA GABc|dcBA GEFG|AcEc ABcd|ecdB cAA2:||\
aAag fddf|bBba geeg|agae fdaf|ecdB cAAg|\
aAag fddf|bBba geeg|agae fdaf|ecdB cAAg:||
